lib/healthicons/icons/solid/symbols/alert_circle.svg

<svg fill="none" height="48" viewBox="0 0 48 48" width="48" xmlns="http://www.w3.org/2000/svg"><path clip-rule="evenodd" d="m4 24c0-11.0457 8.9543-20 20-20s20 8.9543 20 20-8.9543 20-20 20-20-8.9543-20-20zm22-11c0-1.1046-.8954-2-2-2s-2 .8954-2 2v14c0 1.1046.8954 2 2 2s2-.8954 2-2zm-2 20c1.1046 0 2 .8954 2 2s-.8954 2-2 2-2-.8954-2-2 .8954-2 2-2z" fill="#333" fill-rule="evenodd"/></svg>

<svg width="48" height="48" viewBox="0 0 48 48" fill="none" xmlns="http://www.w3.org/2000/svg">
<path fill-rule="evenodd" clip-rule="evenodd" d="M4 24C4 12.9543 12.9543 4 24 4C35.0457 4 44 12.9543 44 24C44 35.0457 35.0457 44 24 44C12.9543 44 4 35.0457 4 24ZM26 13C26 11.8954 25.1046 11 24 11C22.8954 11 22 11.8954 22 13L22 27C22 28.1046 22.8954 29 24 29C25.1046 29 26 28.1046 26 27L26 13ZM24 33C25.1046 33 26 33.8954 26 35C26 36.1046 25.1046 37 24 37C22.8954 37 22 36.1046 22 35C22 33.8954 22.8954 33 24 33Z" fill="#333333"/>
</svg>
